file/espn.svg

<svg clip-rule="evenodd" fill-rule="evenodd" stroke-linejoin="round" stroke-miterlimit="1.41421" viewBox="0 0 560 400" xmlns="http://www.w3.org/2000/svg"><path d="m132.8 102.3c-14.4 0-23.9 7.6-25.3 18.9-.3 2.6-.6 5.2-1 7.9h187.3s.4-2.8.6-5c1.4-11.4-3.4-21.8-21.1-21.8.1 0-132.9 0-140.5 0zm-114.4 0-3.3 26.8h85l3.3-26.8zm285.2 0-3.3 26.8h92.1s.1-1 .5-4.1c2.2-17.6-9.1-22.7-20-22.7zm-4.5 37-7.2 58.5h31.8l7.2-58.4zm60.4 0-7.2 58.5h31.8l7.2-58.4zm-345.6 0-7.2 58.4h85l3.1-25.4h-53.2l1.3-10.9h53.2l2.7-22.2zm91.4 0c-2.3 15.3 5.3 22.1 16.1 22.1h43l-1.3 10.9h-61.8l-3.1 25.4h70c2.3-.2 18-.6 23.4-13.5 1.7-4.2 3.3-19.2 3.7-22.3 2.5-18.3-10.2-22.6-20.1-22.6zm98.9 0-7.2 58.4h31.8l4.5-36.3h39.9c11.3 0 17.4-6.1 18.5-14.3.4-2.6.7-5.3 1-7.9z" fill="#e52534" fill-rule="nonzero" transform="matrix(.931492 0 0 .931492 93.759 60.2297)"/></svg>

<?xml version="1.0" encoding="UTF-8" standalone="no"?>
<!DOCTYPE svg PUBLIC "-//W3C//DTD SVG 1.1//EN" "http://www.w3.org/Graphics/SVG/1.1/DTD/svg11.dtd">
<svg width="100%" height="100%" viewBox="0 0 560 400" version="1.1" xmlns="http://www.w3.org/2000/svg" xmlns:xlink="http://www.w3.org/1999/xlink" xml:space="preserve" xmlns:serif="http://www.serif.com/" style="fill-rule:evenodd;clip-rule:evenodd;stroke-linejoin:round;stroke-miterlimit:1.41421;">
    <g id="red" transform="matrix(0.931492,0,0,0.931492,93.759,60.2297)">
        <path d="M132.8,102.3C118.4,102.3 108.9,109.9 107.5,121.2C107.2,123.8 106.9,126.4 106.5,129.1L293.8,129.1C293.8,129.1 294.2,126.3 294.4,124.1C295.8,112.7 291,102.3 273.3,102.3C273.4,102.3 140.4,102.3 132.8,102.3ZM18.4,102.3L15.1,129.1L100.1,129.1L103.4,102.3L18.4,102.3ZM303.6,102.3L300.3,129.1L392.4,129.1C392.4,129.1 392.5,128.1 392.9,125C395.1,107.4 383.8,102.3 372.9,102.3L303.6,102.3ZM299.1,139.3L291.9,197.8L323.7,197.8L330.9,139.4L299.1,139.3ZM359.5,139.3L352.3,197.8L384.1,197.8L391.3,139.4L359.5,139.3ZM13.9,139.3L6.7,197.7L91.7,197.7L94.8,172.3L41.6,172.3L42.9,161.4L96.1,161.4L98.8,139.2L13.9,139.3L13.9,139.3ZM105.3,139.3C103,154.6 110.6,161.4 121.4,161.4L164.4,161.4L163.1,172.3L101.3,172.3L98.2,197.7L168.2,197.7C170.5,197.5 186.2,197.1 191.6,184.2C193.3,180 194.9,165 195.3,161.9C197.8,143.6 185.1,139.3 175.2,139.3L105.3,139.3ZM204.2,139.3L197,197.7L228.8,197.7L233.3,161.4L273.2,161.4C284.5,161.4 290.6,155.3 291.7,147.1C292.1,144.5 292.4,141.8 292.7,139.2L204.2,139.3L204.2,139.3Z" style="fill:rgb(229,37,52);fill-rule:nonzero;"/>
    </g>
</svg>
